public/images/home/sign.svg

<svg width="12" height="12" viewBox="0 0 12 12" fill="none" xmlns="http://www.w3.org/2000/svg">
<path d="M8.02667 0L11.3333 3.31333L10.38 4.25333L7.08 0.953333L8.02667 0ZM0 10.8533L4.33333 6.54C4.26667 6.33333 4.31333 6.07333 4.48667 5.9C4.74667 5.64 5.17333 5.64 5.43333 5.9C5.69333 6.16667 5.69333 6.58667 5.43333 6.84667C5.26 7.02 5 7.06667 4.79333 7L0.48 11.3333L7.55333 8.96667L9.90667 4.72667L6.61333 1.42667L2.36667 3.78L0 10.8533Z" fill="#FB2E86"/>
</svg>

<svg width="12" height="12" fill="none" xmlns="http://www.w3.org/2000/svg"><path d="M8.027 0l3.306 3.313-.953.94-3.3-3.3L8.027 0zM0 10.853L4.333 6.54a.643.643 0 01.154-.64c.26-.26.686-.26.946 0 .26.267.26.687 0 .947a.643.643 0 01-.64.153L.48 11.333l7.073-2.366 2.354-4.24-3.294-3.3L2.367 3.78 0 10.853z" fill="#FB2E86"/></svg>
